app/assets/img/nav/navReview.svg

<svg height="24" viewBox="0 0 24 24" width="24" xmlns="http://www.w3.org/2000/svg"><path d="m187.988 11c-6.624 0-11.988 5.376-11.988 12s5.364 12 11.988 12c6.636 0 12.012-5.376 12.012-12s-5.376-12-12.012-12zm5.088 19.2-5.076-3.06-5.076 3.06 1.344-5.772-4.476-3.876 5.904-.504 2.304-5.448 2.304 5.436 5.904.504-4.476 3.876z" fill="#888" fill-rule="evenodd" transform="translate(-176 -11)"/></svg>

<?xml version="1.0" encoding="UTF-8"?>
<svg width="24px" height="24px" viewBox="0 0 24 24" version="1.1" xmlns="http://www.w3.org/2000/svg" xmlns:xlink="http://www.w3.org/1999/xlink">
    <!-- Generator: Sketch 41.2 (35397) - http://www.bohemiancoding.com/sketch -->
    <title>navReview</title>
    <desc>Created with Sketch.</desc>
    <defs></defs>
    <g id="Mobile-Web" stroke="none" stroke-width="1" fill="none" fill-rule="evenodd">
        <g id="mobile---find" transform="translate(-176.000000, -617.000000)" fill="#888888">
            <g id="header" transform="translate(0.000000, 606.000000)">
                <path d="M187.988,11 C181.364,11 176,16.376 176,23 C176,29.624 181.364,35 187.988,35 C194.624,35 200,29.624 200,23 C200,16.376 194.624,11 187.988,11 L187.988,11 Z M193.076,30.2 L188,27.14 L182.924,30.2 L184.268,24.428 L179.792,20.552 L185.696,20.048 L188,14.6 L190.304,20.036 L196.208,20.54 L191.732,24.416 L193.076,30.2 L193.076,30.2 Z" id="navReview"></path>
            </g>
        </g>
    </g>
</svg>
